X:36
T:Shoulda Seen It Coming
R:reel
C: 1978, 2010 L.E. McCullough  
M:4/4
L:1/8
K:Ador
c~A3 AGED|E~G3 A ~G3|c~A3 cdeg|dBAG ~A3B|
c~A3 AGED|E~G3 A~G3|c~e3 gage|1 dBAG ~A3B:|2 dBAG ~A3d|]
|:e~g3 aged|c~A3 AGED|E~G3 cdeg|edBG ~A3d|
e~g3 aged|~G3B AGEG|~A3B cdeg|1 dBAG ~A3d:|2 dBAG ~A3B|]  
<end>
<start>
